symbols/web/system_update/materialsymbolsoutlined/system_update_wght200_20px.svg

<svg xmlns="http://www.w3.org/2000/svg" height="20" width="20"><path d="M12.771 9.938 10 12.708l-2.771-2.77.646-.646 1.667 1.687V7.146h.916v3.833l1.667-1.687Zm-6.333 8.395q-.626 0-1.032-.406T5 16.896V3.104q0-.625.406-1.031.406-.406 1.032-.406h7.124q.626 0 1.032.406T15 3.104v13.792q0 .625-.406 1.031-.406.406-1.032.406Zm-.521-3.125h8.166V4.792H5.917Zm0 .917v.771q0 .208.156.364.156.157.365.157h7.124q.209 0 .365-.157.156-.156.156-.364v-.771Zm0-12.25h8.166v-.771q0-.208-.156-.364-.156-.157-.365-.157H6.438q-.209 0-.365.157-.156.156-.156.364Zm0-1.292v1.292V2.583Zm0 14.834v-1.292V17.417Z"/></svg>

<svg xmlns="http://www.w3.org/2000/svg" height="20" width="20"><path d="M12.771 9.938 10 12.708 7.229 9.938 7.875 9.292 9.542 10.979V7.146H10.458V10.979L12.125 9.292ZM6.438 18.333Q5.812 18.333 5.406 17.927Q5 17.521 5 16.896V3.104Q5 2.479 5.406 2.073Q5.812 1.667 6.438 1.667H13.562Q14.188 1.667 14.594 2.073Q15 2.479 15 3.104V16.896Q15 17.521 14.594 17.927Q14.188 18.333 13.562 18.333ZM5.917 15.208H14.083V4.792H5.917ZM5.917 16.125V16.896Q5.917 17.104 6.073 17.26Q6.229 17.417 6.438 17.417H13.562Q13.771 17.417 13.927 17.26Q14.083 17.104 14.083 16.896V16.125ZM5.917 3.875H14.083V3.104Q14.083 2.896 13.927 2.74Q13.771 2.583 13.562 2.583H6.438Q6.229 2.583 6.073 2.74Q5.917 2.896 5.917 3.104ZM5.917 2.583Q5.917 2.583 5.917 2.729Q5.917 2.875 5.917 3.104V3.875V3.104Q5.917 2.875 5.917 2.729Q5.917 2.583 5.917 2.583ZM5.917 17.417Q5.917 17.417 5.917 17.271Q5.917 17.125 5.917 16.896V16.125V16.896Q5.917 17.125 5.917 17.271Q5.917 17.417 5.917 17.417Z"/></svg>
